X:5466
T:Foxhunter's Jig
R:Slip jig
O:Ireland
M:9/8
K:D
F3 FED G2E|F3 FED E2D|F3 FED GAB|AFD DEF E2D::
B3 BAG FGA|B2E E2F G2B|ABc dcB ABc|d2D DEF E2D::
f3 fed g2e|f3 fed e2d|f3 fed gab|afd def e2d::
gfe d=cB AGA|B2E E2F G2B|\
ABc dcB ABc|d2D DEF E2D::
